flaticon/science/test-tube-1.svg

<svg xmlns="http://www.w3.org/2000/svg" width="32" height="32" viewBox="0 0 24 24">
    <path d="M 17.601562 1.601562 C 17.601562 0.71875 16.878906 0 16 0 L 8 0 C 7.121094 0 6.398438 0.71875 6.398438 1.601562 C 6.398438 2.34375 6.910156 2.96875 7.601562 3.148438 L 7.601562 19.601562 C 7.601562 22.039062 9.558594 24 12 24 C 12.078125 24 12.152344 24 12.226562 23.996094 C 14.5625 23.878906 16.402344 21.964844 16.441406 19.601562 L 16.441406 16.160156 C 16.441406 16.109375 16.425781 16.058594 16.398438 16.011719 L 16.398438 3.148438 C 17.089844 2.96875 17.601562 2.34375 17.601562 1.601562 Z M 7.199219 1.601562 C 7.199219 1.160156 7.558594 0.800781 8 0.800781 L 16 0.800781 C 16.441406 0.800781 16.800781 1.160156 16.800781 1.601562 C 16.800781 2.039062 16.441406 2.398438 16 2.398438 L 8 2.398438 C 7.558594 2.398438 7.199219 2.039062 7.199219 1.601562 Z M 15.601562 15.894531 C 14.085938 16.40625 12.296875 15.335938 11.078125 14.121094 C 10.332031 13.441406 9.390625 13.019531 8.398438 12.878906 L 8.398438 3.199219 L 15.601562 3.199219 Z M 12 23.199219 C 10 23.199219 8.398438 21.601562 8.398438 19.601562 L 8.398438 13.679688 C 9.199219 13.839844 9.921875 14.160156 10.519531 14.679688 C 11.839844 16 13.800781 17.121094 15.601562 16.679688 L 15.601562 19.601562 C 15.601562 21.601562 14 23.199219 12 23.199219 Z M 12 23.199219"/>
    <path d="M9.601562 5.601562L12 5.601562C12.238281 5.601562 12.398438 5.441406 12.398438 5.199219 12.398438 4.960938 12.238281 4.800781 12 4.800781L9.601562 4.800781C9.359375 4.800781 9.199219 4.960938 9.199219 5.199219 9.199219 5.441406 9.359375 5.601562 9.601562 5.601562zM9.601562 7.199219L10.800781 7.199219C11.039062 7.199219 11.199219 7.039062 11.199219 6.800781 11.199219 6.558594 11.039062 6.398438 10.800781 6.398438L9.601562 6.398438C9.359375 6.398438 9.199219 6.558594 9.199219 6.800781 9.199219 7.039062 9.359375 7.199219 9.601562 7.199219zM9.601562 8.800781L12 8.800781C12.238281 8.800781 12.398438 8.640625 12.398438 8.398438 12.398438 8.160156 12.238281 8 12 8L9.601562 8C9.359375 8 9.199219 8.160156 9.199219 8.398438 9.199219 8.640625 9.359375 8.800781 9.601562 8.800781zM9.601562 10.398438L10.800781 10.398438C11.039062 10.398438 11.199219 10.238281 11.199219 10 11.199219 9.761719 11.039062 9.601562 10.800781 9.601562L9.601562 9.601562C9.359375 9.601562 9.199219 9.761719 9.199219 10 9.199219 10.238281 9.359375 10.398438 9.601562 10.398438zM9.601562 12L12 12C12.238281 12 12.398438 11.839844 12.398438 11.601562 12.398438 11.359375 12.238281 11.199219 12 11.199219L9.601562 11.199219C9.359375 11.199219 9.199219 11.359375 9.199219 11.601562 9.199219 11.839844 9.359375 12 9.601562 12zM9.601562 12"/>
</svg>

<svg xmlns="http://www.w3.org/2000/svg" width="32" height="32" viewBox="0 0 24 24">
    <path d="M17.602 1.602C17.602.719 16.879 0 16 0H8c-.879 0-1.602.719-1.602 1.602 0 .742.512 1.367 1.204 1.546v16.454A4.385 4.385 0 0 0 12 24c.078 0 .152 0 .227-.004 2.335-.117 4.175-2.031 4.214-4.394V16.16a.296.296 0 0 0-.043-.148V3.148a1.604 1.604 0 0 0 1.204-1.546zm-10.403 0C7.2 1.16 7.56.8 8 .8h8c.441 0 .8.36.8.8 0 .438-.359.797-.8.797H8c-.441 0-.8-.359-.8-.796zm8.403 14.293c-1.516.511-3.305-.56-4.524-1.774a5.018 5.018 0 0 0-2.68-1.242v-9.68h7.204zM12 23.199c-2 0-3.602-1.597-3.602-3.597V13.68c.801.16 1.524.48 2.122 1 1.32 1.32 3.28 2.441 5.082 2v2.922c0 2-1.602 3.597-3.602 3.597zm0 0"/>
    <path d="M9.602 5.602H12c.238 0 .398-.16.398-.403 0-.238-.16-.398-.398-.398H9.602c-.243 0-.403.16-.403.398 0 .242.16.403.403.403zm0 0M9.602 7.2H10.8c.238 0 .398-.16.398-.4 0-.241-.16-.402-.398-.402H9.6c-.242 0-.402.16-.402.403 0 .238.16.398.403.398zm0 0M9.602 8.8H12c.238 0 .398-.16.398-.402 0-.238-.16-.398-.398-.398H9.602c-.243 0-.403.16-.403.398 0 .243.16.403.403.403zm0 0M9.602 10.398H10.8c.238 0 .398-.16.398-.398 0-.238-.16-.398-.398-.398H9.6c-.242 0-.402.16-.402.398 0 .238.16.398.403.398zm0 0M9.602 12H12c.238 0 .398-.16.398-.398 0-.243-.16-.403-.398-.403H9.602c-.243 0-.403.16-.403.403 0 .238.16.398.403.398zm0 0"/>
</svg>
